svg/24/prompter.svg

<svg width="24" height="24" viewBox="0 0 24 24" fill="currentColor" xmlns="http://www.w3.org/2000/svg"><path fill-rule="evenodd" clip-rule="evenodd" d="M17 15H18.2842C19.2713 15 20.1108 14.2798 20.2609 13.3041L21.6455 4.30411C21.8319 3.0926 20.8946 2 19.6688 2H4.33124C3.10547 2 2.16811 3.0926 2.3545 4.30411L3.73911 13.3041C3.88921 14.2798 4.72871 15 5.71586 15H7.00002V17H5.1324C4.42987 17 3.77886 17.3686 3.41741 17.971L2.81741 18.971C2.01758 20.3041 2.97781 22 4.5324 22H19.4676C21.0222 22 21.9825 20.3041 21.1826 18.971L20.5826 17.971C20.2212 17.3686 19.5702 17 18.8676 17H17V15ZM19.6688 3.5H4.33124C4.0248 3.5 3.79046 3.77315 3.83705 4.07603L5.00002 11.6353V7C5.00002 5.89543 5.89545 5 7.00002 5H17C18.1046 5 19 5.89543 19 7V11.6353L20.163 4.07603C20.2096 3.77315 19.9752 3.5 19.6688 3.5ZM15.5 15H8.50002V17H15.5V15ZM17 13.5C17.2762 13.5 17.5 13.2761 17.5 13V7C17.5 6.72386 17.2762 6.5 17 6.5H7.00002C6.72388 6.5 6.50002 6.72386 6.50002 7V13C6.50002 13.2761 6.72388 13.5 7.00002 13.5H17ZM4.5324 20.5H19.4676C19.8563 20.5 20.0963 20.076 19.8964 19.7428L19.2964 18.7428C19.206 18.5921 19.0433 18.5 18.8676 18.5H5.1324C4.95677 18.5 4.79401 18.5921 4.70365 18.7428L4.10365 19.7428C3.90369 20.076 4.14375 20.5 4.5324 20.5Z"/></svg>

<svg xmlns="http://www.w3.org/2000/svg" width="24" height="24" fill="currentColor" viewBox="0 0 24 24">
  <path fill-rule="evenodd" d="M17 15h1.284a2 2 0 0 0 1.977-1.696l1.384-9A2 2 0 0 0 19.67 2H4.33a2 2 0 0 0-1.977 2.304l1.385 9A2 2 0 0 0 5.716 15H7v2H5.132a2 2 0 0 0-1.715.971l-.6 1c-.8 1.333.16 3.029 1.715 3.029h14.936c1.554 0 2.515-1.696 1.715-3.029l-.6-1A2 2 0 0 0 18.868 17H17v-2Zm2.669-11.5H4.33a.5.5 0 0 0-.494.576L5 11.636V7a2 2 0 0 1 2-2h10a2 2 0 0 1 2 2v4.635l1.163-7.559a.5.5 0 0 0-.494-.576ZM15.5 15h-7v2h7v-2Zm1.5-1.5a.5.5 0 0 0 .5-.5V7a.5.5 0 0 0-.5-.5H7a.5.5 0 0 0-.5.5v6a.5.5 0 0 0 .5.5h10Zm-12.468 7h14.936a.5.5 0 0 0 .428-.757l-.6-1a.5.5 0 0 0-.428-.243H5.132a.5.5 0 0 0-.428.243l-.6 1a.5.5 0 0 0 .428.757Z" clip-rule="evenodd"/>
</svg>
